logos/descript.svg

<?xml version="1.0" encoding="UTF-8"?>
<svg width="512px" height="121px" viewBox="0 0 512 121" version="1.1" xmlns="http://www.w3.org/2000/svg" preserveAspectRatio="xMidYMid">
    <title>descript</title>
    <g>
        <path d="M0,109.614435 C0,116.199325 4.27322022,120.469986 10.8605239,120.469986 L42.592393,120.470588 C61.5220778,120.470588 77.0071528,114.068211 87.5350269,102.860286 L0,102.860286 L0,109.614435 Z M42.592393,0.000602349929 L10.8605239,0 C4.27322022,0 0,4.27126335 0,10.8561528 L0,17.6103025 L87.5350269,17.6103025 C77.0071528,6.40237743 61.5220778,0.000602349929 42.592393,0.000602349929 Z M70.2848608,77.4007615 C70.2848608,82.7279438 73.7565883,86.1842281 79.1091116,86.1842281 L98.123164,86.1842281 C100.278757,80.8377699 101.726867,74.9600395 102.4,68.6172943 L79.1091116,68.6172943 C73.7565883,68.6172943 70.2848608,72.0729763 70.2848608,77.4007615 Z M43.9296199,43.1131962 C43.9296199,48.4409813 47.4013477,51.8966629 52.7538708,51.8966629 L102.4,51.8966629 C101.726867,45.5539181 100.278757,39.6761875 98.123164,34.3297295 L52.7538708,34.3297295 C47.4013477,34.3297295 43.9296199,37.7854111 43.9296199,43.1131962 Z M52.7478446,77.4007615 C52.7478446,72.0729763 49.2761168,68.6172943 43.9235936,68.6172943 L0,68.6172943 L0,86.1842281 L43.9235936,86.1842281 C49.2761168,86.1842281 52.7478446,82.7285462 52.7478446,77.4007615 Z M26.3926037,43.1131962 C26.3926037,37.7854111 22.9208759,34.3297295 17.5683527,34.3297295 L0,34.3297295 L0,51.8966629 L17.5683527,51.8966629 C22.9208759,51.8966629 26.3926037,48.4409813 26.3926037,43.1131962 Z" fill="#0062FF"></path>
        <path d="M171.670588,78.3058824 C162.265597,78.3058824 156.611765,71.5633937 156.611765,63.2467261 C156.611765,54.9300587 162.373973,48.1882353 171.670588,48.1882353 C180.967204,48.1882353 186.729412,54.9300587 186.729412,63.2467261 C186.729412,71.5633937 181.075579,78.3058824 171.670588,78.3058824 Z M185.704542,44.1006223 C181.949235,39.5900802 176.617065,36.825147 169.998407,36.825147 C155.204428,36.825147 144.564706,48.8082085 144.564706,63.589044 C144.564706,78.3705112 155.103427,90.3529412 169.998407,90.3529412 C176.617065,90.3529412 181.949235,87.5880081 185.704542,83.0774658 L185.704542,89.034893 L198.776471,89.034893 L198.776471,18.0705882 L185.704542,18.0705882 L185.704542,44.1006223 Z M223.305786,58.421377 C224.719671,51.5466435 229.287073,48.0510704 235.290425,48.0510704 C241.242099,48.0510704 245.594079,51.7033526 246.982416,58.421377 L223.305786,58.421377 Z M235.616751,36.1411765 C220.33111,36.1411765 210.823529,48.3798397 210.823529,63.3497193 C210.823529,78.8536892 220.983182,90.3529412 236.083014,90.3529412 C246.496991,90.3529412 252.813895,85.5269394 256.723419,79.4498235 L247.002158,73.2262323 C244.558197,76.5721321 240.647512,78.3400671 236.455792,78.3400671 C229.598883,78.3400671 225.007094,75.1227326 223.442239,68.6887034 L249.100631,68.6887034 L258.447953,68.7692967 C258.80273,67.0761985 259.011765,65.3268129 259.011765,63.3497193 C259.011765,50.3102404 250.995876,36.1411765 235.616751,36.1411765 Z M298.986453,62.35756 C302.535236,64.8367115 304.784448,68.5541785 304.784448,73.4595461 C304.784448,83.3736318 298.101971,90.2521115 285.608225,90.2521115 C273.850541,90.2521115 267.545748,84.2275334 265.035294,78.1430882 L275.827048,71.8412285 L275.931241,72.2054613 C276.378504,73.5857118 278.441964,78.4165888 285.414557,78.4165888 C290.450547,78.4165888 292.000501,76.190772 292.000501,74.225222 L291.968922,73.7543426 C291.833096,72.8051445 291.158439,71.4209914 288.126522,70.2222808 L286.655177,69.6878391 C279.191741,67.1648932 267.013612,65.264994 267.013612,53.1265959 C267.013612,42.5054417 275.338954,36.8407001 285.608225,36.8407001 C295.210816,36.8407001 301.379257,42.8154932 303.720779,47.4643751 L293.162513,53.6326352 L292.939072,53.1565054 C292.280667,51.8792684 290.111816,48.4733028 285.705361,48.4733028 C280.282032,48.4733028 279.797559,51.6097383 279.797559,52.5197269 C279.797559,54.9982903 282.155778,56.1132321 287.198418,57.6470685 L290.921172,58.7526205 C293.105013,59.42111 295.331923,60.2089901 297.618253,61.5058193 L298.986453,62.35756 Z M335.843426,77.5059701 C341.027836,77.5059701 345.014034,74.9228378 347.028551,70.6854675 L357.858315,77.1713414 C353.615099,84.9446852 345.708466,90.3529412 335.843426,90.3529412 C320.880856,90.3529412 310.420933,78.3964226 310.420933,63.6475506 C310.420933,48.8980481 320.977389,36.9415298 335.843426,36.9415298 C345.563667,36.9415298 353.440737,42.2615597 357.729805,49.9315531 L346.924175,56.5655207 C344.870442,52.3836067 340.915617,49.7885009 335.843426,49.7885009 C328.283105,49.7885009 322.914679,55.9933119 322.914679,63.6475506 C322.914679,71.3011592 328.233632,77.5059701 335.843426,77.5059701 Z M379.572068,46.7550356 C381.914787,40.6655229 386.686386,37.1824919 393.872795,37.1668393 L393.872795,51.6392931 C385.770822,50.8205383 379.831572,54.9268158 379.584173,64.6421949 L379.572068,65.8112158 L379.572068,88.4230554 L367.435294,88.4230554 L367.435294,38.1717403 L379.572068,38.1717403 L379.572068,46.7550356 Z M402.190826,88.4230554 L402.190826,38.1711142 L414.3276,38.1711142 L414.3276,88.4230554 L402.190826,88.4230554 Z M402.190826,31.4648865 L402.190826,18.0705882 L414.72792,18.0705882 L414.72792,31.4648865 L402.190826,31.4648865 Z M452.244073,36.6635748 C465.980367,36.6635748 475.858824,48.5433212 475.858824,63.1967198 C475.858824,77.8507446 466.074146,89.7298649 452.244073,89.7298649 C446.098612,89.7298649 441.147661,86.9887705 437.660837,82.5171173 L437.660837,108.423529 L425.523476,108.423529 L425.523476,38.0710624 L437.660837,38.0710624 L437.660837,43.8763227 C441.147661,39.4046694 446.098612,36.6635748 452.244073,36.6635748 Z M450.691443,49.0260494 C442.646954,49.0260494 437.660837,55.3703875 437.660837,63.1967198 C437.660837,71.0230523 442.553175,77.3680164 450.691443,77.3680164 C458.829711,77.3680164 463.72205,71.0230523 463.72205,63.1967198 C463.72205,55.3703875 458.735346,49.0260494 450.691443,49.0260494 Z M512,50.8001384 L501.056207,50.8001384 L501.056207,71.8407873 C501.056207,78.4167779 507.447879,77.0001198 512,77.0001198 L512,88.8356424 L510.795183,88.987828 C509.691197,89.1025524 507.85749,89.2402218 505.414659,89.2402218 L503.638506,89.2024671 C495.174049,88.825949 488.563064,85.4683352 488.563064,71.8407873 L488.563064,50.8001384 L480.136965,50.8001384 L480.136965,38.2562868 L488.563064,38.2562868 L488.563064,24.0941176 L501.056207,24.0941176 L501.056207,38.2562868 L512,38.2562868 L512,50.8001384 Z" fill="#0062FF"></path>
    </g>
</svg>

<svg preserveAspectRatio="xMidYMid" viewBox="0 0 512 121" xmlns="http://www.w3.org/2000/svg">
  <g fill="#0062FF">
    <path d="M0 109.614c0 6.585 4.273 10.856 10.86 10.856h31.732c18.93 0 34.415-6.402 44.943-17.61H0v6.754ZM42.592.001 10.861 0C4.273 0 0 4.271 0 10.856v6.754h87.535C77.007 6.402 61.522 0 42.592 0Zm27.693 77.4c0 5.327 3.472 8.783 8.824 8.783h19.014c2.156-5.346 3.604-11.224 4.277-17.567H79.11c-5.353 0-8.825 3.456-8.825 8.784ZM43.93 43.113c0 5.328 3.471 8.784 8.824 8.784H102.4c-.673-6.343-2.121-12.22-4.277-17.567h-45.37c-5.352 0-8.823 3.455-8.823 8.783Zm8.818 34.288c0-5.328-3.472-8.784-8.824-8.784H0v17.567h43.924c5.352 0 8.824-3.455 8.824-8.783ZM26.393 43.113c0-5.328-3.472-8.783-8.825-8.783H0v17.567h17.568c5.353 0 8.825-3.456 8.825-8.784Z"/>
    <path d="M171.67 78.306c-9.404 0-15.058-6.743-15.058-15.06 0-8.316 5.762-15.058 15.059-15.058 9.296 0 15.058 6.742 15.058 15.059 0 8.316-5.653 15.059-15.058 15.059ZM185.706 44.1c-3.756-4.51-9.088-7.276-15.707-7.276-14.794 0-25.433 11.983-25.433 26.764 0 14.782 10.538 26.764 25.433 26.764 6.62 0 11.951-2.765 15.707-7.276v5.958h13.071V18.07h-13.071V44.1Zm37.6 14.32c1.415-6.874 5.982-10.37 11.985-10.37 5.952 0 10.304 3.652 11.692 10.37h-23.676Zm12.312-22.28c-15.286 0-24.793 12.239-24.793 27.209 0 15.504 10.16 27.003 25.259 27.003 10.414 0 16.73-4.826 20.64-10.903l-9.72-6.224c-2.445 3.346-6.355 5.114-10.547 5.114-6.857 0-11.449-3.217-13.014-9.651h25.659l9.347.08c.355-1.693.564-3.442.564-5.42 0-13.039-8.016-27.208-23.395-27.208Zm63.37 26.217c3.548 2.479 5.797 6.196 5.797 11.102 0 9.914-6.682 16.792-19.176 16.792-11.757 0-18.062-6.024-20.573-12.109l10.792-6.302.104.364c.448 1.38 2.511 6.212 9.484 6.212 5.036 0 6.586-2.226 6.586-4.192l-.032-.47c-.136-.95-.81-2.334-3.842-3.533l-1.472-.534c-7.463-2.523-19.641-4.423-19.641-16.561 0-10.622 8.325-16.286 18.594-16.286 9.603 0 15.771 5.974 18.113 10.623l-10.558 6.169-.224-.476c-.658-1.278-2.827-4.684-7.234-4.684-5.423 0-5.907 3.137-5.907 4.047 0 2.478 2.358 3.593 7.4 5.127l3.723 1.106c2.184.668 4.41 1.456 6.697 2.753l1.368.852Zm36.856 15.148c5.185 0 9.171-2.583 11.186-6.82l10.83 6.485c-4.244 7.774-12.15 13.182-22.016 13.182-14.962 0-25.422-11.957-25.422-26.705 0-14.75 10.556-26.706 25.422-26.706 9.72 0 17.598 5.32 21.887 12.99l-10.806 6.634c-2.054-4.182-6.008-6.777-11.08-6.777-7.56 0-12.93 6.204-12.93 13.859 0 7.653 5.32 13.858 12.93 13.858Zm43.73-30.751c2.342-6.09 7.113-9.573 14.3-9.588v14.472c-8.102-.818-14.041 3.288-14.289 13.003l-.012 1.17v22.611h-12.137v-50.25h12.137v8.583Zm22.618 41.668V38.171h12.137v50.252H402.19Zm0-56.958V18.07h12.537v13.394H402.19Zm50.053 5.199c13.736 0 23.615 11.88 23.615 26.533 0 14.654-9.785 26.533-23.615 26.533-6.145 0-11.096-2.741-14.583-7.213v25.907h-12.138V38.07h12.138v5.805c3.487-4.471 8.438-7.212 14.583-7.212Zm-1.553 12.362c-8.044 0-13.03 6.344-13.03 14.17 0 7.827 4.892 14.172 13.03 14.172 8.139 0 13.031-6.345 13.031-14.171 0-7.827-4.987-14.171-13.03-14.171ZM512 50.8h-10.944v21.04c0 6.577 6.392 5.16 10.944 5.16v11.836l-1.205.152c-1.104.115-2.938.252-5.38.252l-1.776-.038c-8.465-.376-15.076-3.734-15.076-17.361V50.8h-8.426V38.255h8.426V24.094h12.493v14.162H512V50.8Z"/>
  </g>
</svg>
